X:718
T:Father O' Flynn
T:Rollicking Irishman
S:Sessions
Z:Nigel Gatherer
M:6/8
L:1/8
K:D
A | dAF DFA | ded cBA | dcd efg | fdf ecA |
    dAF DFA | ded cBA | dcd efg | fdd d2 :|
e | f2f fga | efe e2c | dcd Bed | cAA A3  |
    BGB Bcd | AFD DFA | dcd efg | fdd d2 :|
